X:1
T: Follow me down to Carlow
C:
R:Reel
Q: 232
K:Am
M:4/4
L:1/8
((3ABA) AG E^F G2|((3ABA) AB cd ed|cB cG E^F GB|((3ABc) BG A2 A2|
((3ABA) AG E^F G2|((3ABA) AB cd ed|cB cG E^F GB|((3ABc) BG A2 A2|
ea ag e^f g2|((3BcB) BA GA ((3Bcd)|ea ag e^f g2|((3BcB) BG A2 A2|
ea ag e^f g2|((3BcB) BA GA ((3Bcd)|eg ^fa ga ge|dB GB gd BG|
((3ABA) AG E^F G2|((3ABA) AB cd ed|cB cG E^F GB|((3ABc) BG A2 A2|
((3ABA) AG E^F G2|((3ABA) AB cd ed|cB cG E^F GB|((3ABc) BG A2 A2||
